assets/img/accessibility-card.svg

<svg width="285" height="170" viewBox="0 0 285 170" fill="none" xmlns="http://www.w3.org/2000/svg">
<path d="M0 8C0 3.58172 3.58172 0 8 0H277C281.418 0 285 3.58172 285 8V170H0V8Z" fill="#F6F6F6"/>
<path d="M59.0982 108.967C55.961 108.967 53.0151 108.274 50.2604 106.889C47.5058 105.503 45.2485 103.573 43.4886 101.098L33.3308 86.6912C33.063 86.3218 32.9578 85.9247 33.0152 85.4999C33.0726 85.0751 33.2543 84.7149 33.5604 84.4194C34.3256 83.6436 35.2725 83.2003 36.4011 83.0895C37.5297 82.9787 38.5532 83.2373 39.4714 83.8653L45.7841 88.0765V67.6493C45.7841 67.0213 46.0041 66.4949 46.4441 66.0701C46.8841 65.6453 47.4292 65.4329 48.0796 65.4329C48.7301 65.4329 49.2752 65.6453 49.7152 66.0701C50.1552 66.4949 50.3752 67.0213 50.3752 67.6493V92.3432C50.3752 93.2297 49.9639 93.8854 49.1413 94.3103C48.3188 94.7351 47.5249 94.6889 46.7597 94.1717L41.8817 90.9025L47.3336 98.5492C48.6727 100.433 50.3752 101.902 52.4412 102.954C54.5072 104.007 56.7262 104.534 59.0982 104.534C63.0389 104.534 66.3961 103.195 69.1699 100.516C71.9437 97.8381 73.3306 94.5966 73.3306 90.7917V69.8658C73.3306 69.2378 73.5505 68.7114 73.9905 68.2866C74.4305 67.8618 74.9757 67.6493 75.6261 67.6493C76.2765 67.6493 76.8217 67.8618 77.2617 68.2866C77.7016 68.7114 77.9216 69.2378 77.9216 69.8658V90.7917C77.9216 95.8525 76.0948 100.147 72.441 103.675C68.7873 107.203 64.3397 108.967 59.0982 108.967ZM57.2618 61C57.9122 61 58.4574 61.2124 58.8974 61.6372C59.3373 62.062 59.5573 62.5885 59.5573 63.2164V82.3692C59.5573 82.9971 59.3373 83.5236 58.8974 83.9484C58.4574 84.3732 57.9122 84.5856 57.2618 84.5856C56.6114 84.5856 56.0662 84.3732 55.6262 83.9484C55.1862 83.5236 54.9663 82.9971 54.9663 82.3692V63.2164C54.9663 62.5885 55.1862 62.062 55.6262 61.6372C56.0662 61.2124 56.6114 61 57.2618 61ZM66.4439 63.2164C67.0943 63.2164 67.6395 63.4289 68.0795 63.8537C68.5195 64.2785 68.7395 64.8049 68.7395 65.4329V82.3692C68.7395 82.9971 68.5195 83.5236 68.0795 83.9484C67.6395 84.3732 67.0943 84.5856 66.4439 84.5856C65.7935 84.5856 65.2484 84.3732 64.8084 83.9484C64.3684 83.5236 64.1484 82.9971 64.1484 82.3692V65.4329C64.1484 64.8049 64.3684 64.2785 64.8084 63.8537C65.2484 63.4289 65.7935 63.2164 66.4439 63.2164Z" fill="#457AA5"/>
<path d="M172.5 95.8C175.705 95.8 178.429 94.75 180.673 92.65C182.917 90.55 184.038 88 184.038 85C184.038 82 182.917 79.45 180.673 77.35C178.429 75.25 175.705 74.2 172.5 74.2C169.295 74.2 166.571 75.25 164.327 77.35C162.083 79.45 160.962 82 160.962 85C160.962 88 162.083 90.55 164.327 92.65C166.571 94.75 169.295 95.8 172.5 95.8ZM172.5 91.48C170.577 91.48 168.942 90.85 167.596 89.59C166.25 88.33 165.577 86.8 165.577 85C165.577 83.2 166.25 81.67 167.596 80.41C168.942 79.15 170.577 78.52 172.5 78.52C174.423 78.52 176.058 79.15 177.404 80.41C178.75 81.67 179.423 83.2 179.423 85C179.423 86.8 178.75 88.33 177.404 89.59C176.058 90.85 174.423 91.48 172.5 91.48ZM172.5 103C166.774 103 161.549 101.56 156.827 98.68C152.105 95.8 148.376 92 145.641 87.28C145.427 86.92 145.267 86.55 145.16 86.17C145.053 85.79 145 85.4 145 85C145 84.6 145.053 84.21 145.16 83.83C145.267 83.45 145.427 83.08 145.641 82.72C148.376 78 152.105 74.2 156.827 71.32C161.549 68.44 166.774 67 172.5 67C178.226 67 183.451 68.44 188.173 71.32C192.895 74.2 196.624 78 199.359 82.72C199.573 83.08 199.733 83.45 199.84 83.83C199.947 84.21 200 84.6 200 85C200 85.4 199.947 85.79 199.84 86.17C199.733 86.55 199.573 86.92 199.359 87.28C196.624 92 192.895 95.8 188.173 98.68C183.451 101.56 178.226 103 172.5 103ZM172.5 98.2C177.329 98.2 181.763 97.01 185.801 94.63C189.84 92.25 192.927 89.04 195.064 85C192.927 80.96 189.84 77.75 185.801 75.37C181.763 72.99 177.329 71.8 172.5 71.8C167.671 71.8 163.237 72.99 159.199 75.37C155.16 77.75 152.073 80.96 149.936 85C152.073 89.04 155.16 92.25 159.199 94.63C163.237 97.01 167.671 98.2 172.5 98.2Z" fill="#457AA5"/>
<path d="M248.333 78.3617C248.333 80.8363 247.935 83.1833 247.138 85.4026C246.34 87.6219 245.222 89.6547 243.783 91.5008C243.356 92.0507 243.142 92.6498 243.142 93.2979C243.142 93.946 243.375 94.5057 243.842 94.9771C244.347 95.4484 244.931 95.6547 245.592 95.5957C246.253 95.5368 246.797 95.2324 247.225 94.6825C249.014 92.4435 250.424 89.9296 251.454 87.1408C252.485 84.3519 253 81.4255 253 78.3617C253 75.2193 252.485 72.2537 251.454 69.4648C250.424 66.6759 249.014 64.162 247.225 61.9231C246.797 61.3732 246.253 61.0687 245.592 61.0098C244.931 60.9509 244.347 61.1571 243.842 61.6285C243.375 62.0998 243.142 62.6596 243.142 63.3077C243.142 63.9558 243.356 64.5548 243.783 65.1047C245.222 66.9509 246.34 68.9935 247.138 71.2324C247.935 73.4714 248.333 75.8478 248.333 78.3617ZM227.333 84.2537C228.967 84.2537 230.347 83.6743 231.475 82.5155C232.603 81.3568 233.167 79.9722 233.167 78.3617C233.167 76.7119 232.603 75.3175 231.475 74.1784C230.347 73.0393 228.967 72.4697 227.333 72.4697C225.7 72.4697 224.319 73.0393 223.192 74.1784C222.064 75.3175 221.5 76.7119 221.5 78.3617C221.5 79.9722 222.064 81.3568 223.192 82.5155C224.319 83.6743 225.7 84.2537 227.333 84.2537ZM215.667 99.5728C215.667 98.9051 215.443 98.3453 214.996 97.8936C214.549 97.4419 213.994 97.216 213.333 97.216C212.672 97.216 212.118 97.4419 211.671 97.8936C211.224 98.3453 211 98.9051 211 99.5728C211 102.165 211.914 104.385 213.742 106.231C215.569 108.077 217.767 109 220.333 109C222.744 109 224.718 108.391 226.254 107.173C227.79 105.956 228.967 104.169 229.783 101.812C230.444 99.8478 231.076 98.473 231.679 97.6874C232.282 96.9018 233.672 95.6448 235.85 93.9165C238.261 91.9525 240.167 89.7332 241.567 87.2586C242.967 84.784 243.667 81.8183 243.667 78.3617C243.667 73.6874 242.101 69.7692 238.971 66.6072C235.84 63.4452 231.961 61.8642 227.333 61.8642C222.706 61.8642 218.826 63.4452 215.696 66.6072C212.565 69.7692 211 73.6874 211 78.3617C211 79.0295 211.224 79.5892 211.671 80.0409C212.118 80.4926 212.672 80.7185 213.333 80.7185C213.994 80.7185 214.549 80.4926 214.996 80.0409C215.443 79.5892 215.667 79.0295 215.667 78.3617C215.667 75.0229 216.785 72.2242 219.021 69.9656C221.257 67.707 224.028 66.5777 227.333 66.5777C230.639 66.5777 233.41 67.707 235.646 69.9656C237.882 72.2242 239 75.0229 239 78.3617C239 81.0327 238.475 83.311 237.425 85.1964C236.375 87.0818 234.878 88.7709 232.933 90.2635C230.911 91.7561 229.336 93.2095 228.208 94.6236C227.081 96.0376 226.244 97.5696 225.7 99.2193C225.156 100.948 224.504 102.224 223.746 103.049C222.988 103.874 221.85 104.286 220.333 104.286C219.05 104.286 217.951 103.825 217.038 102.902C216.124 101.979 215.667 100.869 215.667 99.5728Z" fill="#457AA5"/>
<path d="M107.263 89.0339L107.496 90.9426C107.535 91.2607 107.661 91.5192 107.874 91.718C108.087 91.9168 108.349 92.0162 108.659 92.0162H111.219C111.529 92.0162 111.79 91.9168 112.004 91.718C112.217 91.5192 112.343 91.2607 112.382 90.9426L112.614 89.0339C112.925 88.9146 113.206 88.7754 113.458 88.6164C113.71 88.4573 113.933 88.2784 114.127 88.0795L115.872 88.8549C116.143 88.9742 116.415 88.9941 116.686 88.9146C116.957 88.8351 117.171 88.6561 117.326 88.3778L118.605 86.1112C118.76 85.8329 118.809 85.5545 118.751 85.2762C118.693 84.9978 118.547 84.7592 118.315 84.5604L116.802 83.4271C116.88 83.109 116.919 82.7909 116.919 82.4728C116.919 82.1546 116.88 81.8365 116.802 81.5184L118.315 80.3851C118.547 80.1863 118.693 79.9477 118.751 79.6694C118.809 79.391 118.76 79.1127 118.605 78.8343L117.326 76.5678C117.171 76.2894 116.957 76.1105 116.686 76.0309C116.415 75.9514 116.143 75.9713 115.872 76.0906L114.127 76.866C113.933 76.6672 113.71 76.4882 113.458 76.3292C113.206 76.1701 112.925 76.0309 112.614 75.9116L112.382 74.003C112.343 73.6848 112.217 73.4264 112.004 73.2275C111.79 73.0287 111.529 72.9293 111.219 72.9293H108.659C108.349 72.9293 108.087 73.0287 107.874 73.2275C107.661 73.4264 107.535 73.6848 107.496 74.003L107.263 75.9116C106.953 76.0309 106.672 76.1701 106.42 76.3292C106.168 76.4882 105.945 76.6672 105.751 76.866L104.006 76.0906C103.735 75.9713 103.463 75.9514 103.192 76.0309C102.921 76.1105 102.707 76.2894 102.552 76.5678L101.273 78.8343C101.117 79.1127 101.069 79.391 101.127 79.6694C101.185 79.9477 101.331 80.1863 101.563 80.3851L103.076 81.5184C102.998 81.8365 102.959 82.1546 102.959 82.4728C102.959 82.7909 102.998 83.109 103.076 83.4271L101.563 84.5604C101.331 84.7592 101.185 84.9978 101.127 85.2762C101.069 85.5545 101.117 85.8329 101.273 86.1112L102.552 88.3778C102.707 88.6561 102.921 88.8351 103.192 88.9146C103.463 88.9941 103.735 88.9742 104.006 88.8549L105.751 88.0795C105.945 88.2784 106.168 88.4573 106.42 88.6164C106.672 88.7754 106.953 88.9146 107.263 89.0339ZM109.939 86.0516C108.97 86.0516 108.146 85.7036 107.467 85.0077C106.788 84.3119 106.449 83.4669 106.449 82.4728C106.449 81.4787 106.788 80.6337 107.467 79.9378C108.146 79.2419 108.97 78.894 109.939 78.894C110.908 78.894 111.732 79.2419 112.411 79.9378C113.089 80.6337 113.429 81.4787 113.429 82.4728C113.429 83.4669 113.089 84.3119 112.411 85.0077C111.732 85.7036 110.908 86.0516 109.939 86.0516ZM95.9796 98.458C93.7694 96.3903 92.0536 93.9746 90.8322 91.211C89.6107 88.4474 89 85.5346 89 82.4728C89 76.5081 91.0357 71.4382 95.1072 67.2629C99.1787 63.0876 104.123 61 109.939 61C114.786 61 119.08 62.4613 122.822 65.384C126.564 68.3067 128.997 72.1141 130.122 76.8063L133.146 89.0339C133.34 89.7894 133.204 90.4753 132.739 91.0917C132.274 91.708 131.653 92.0162 130.878 92.0162H126.225V99.1738C126.225 100.486 125.769 101.609 124.858 102.544C123.947 103.478 122.851 103.946 121.572 103.946H116.919V106.331C116.919 107.007 116.696 107.574 116.25 108.031C115.804 108.489 115.251 108.717 114.592 108.717C113.933 108.717 113.38 108.489 112.934 108.031C112.488 107.574 112.265 107.007 112.265 106.331V101.56C112.265 100.884 112.488 100.317 112.934 99.8597C113.38 99.4025 113.933 99.1738 114.592 99.1738H121.572V89.6304C121.572 88.9544 121.795 88.3877 122.241 87.9304C122.687 87.4731 123.239 87.2445 123.898 87.2445H127.853L125.643 77.9993C124.751 74.3807 122.851 71.4381 119.943 69.1716C117.035 66.905 113.7 65.7717 109.939 65.7717C105.441 65.7717 101.602 67.3822 98.4225 70.6031C95.2429 73.824 93.6531 77.7408 93.6531 82.3535C93.6531 84.7393 94.1281 87.0059 95.0781 89.1532C96.0281 91.3005 97.3756 93.2091 99.1205 94.8792L100.633 96.3108V106.331C100.633 107.007 100.41 107.574 99.9639 108.031C99.5179 108.489 98.9654 108.717 98.3062 108.717C97.647 108.717 97.0945 108.489 96.6485 108.031C96.2026 107.574 95.9796 107.007 95.9796 106.331V98.458Z" fill="#457AA5"/>
</svg>

<svg xmlns="http://www.w3.org/2000/svg" width="285" height="170" fill="none" viewBox="0 0 285 170"><path fill="#f6f6f6" d="M0 8a8 8 0 0 1 8-8h269a8 8 0 0 1 8 8v162H0z"/><path fill="#457aa5" d="M59.098 108.967q-4.705 0-8.838-2.078-4.131-2.079-6.771-5.791L33.33 86.691q-.402-.554-.316-1.191t.545-1.08q1.148-1.164 2.841-1.33t3.07.775l6.313 4.212V67.649q0-.942.66-1.579t1.636-.637 1.635.637.66 1.58v24.693q0 1.33-1.234 1.967-1.233.638-2.381-.138l-4.878-3.27 5.452 7.647a13.93 13.93 0 0 0 5.107 4.405q3.099 1.58 6.657 1.58 5.91 0 10.072-4.018 4.16-4.017 4.16-9.724V69.866q0-.942.66-1.58.66-.637 1.636-.637t1.636.638q.66.636.66 1.579v20.926q0 7.59-5.481 12.883t-13.343 5.292M57.262 61q.975 0 1.635.637.66.638.66 1.58v19.152q0 .942-.66 1.58-.66.637-1.635.637t-1.636-.638a2.1 2.1 0 0 1-.66-1.579V63.216q0-.941.66-1.579.66-.637 1.636-.637m9.182 2.216q.975 0 1.635.638.66.636.66 1.579v16.936q0 .942-.66 1.58-.66.637-1.635.637-.976 0-1.636-.638a2.1 2.1 0 0 1-.66-1.579V65.433q0-.942.66-1.58.66-.636 1.636-.637M172.5 95.8q4.807 0 8.173-3.15t3.365-7.65q0-4.5-3.365-7.65T172.5 74.2q-4.807 0-8.173 3.15T160.962 85q0 4.5 3.365 7.65t8.173 3.15m0-4.32q-2.885 0-4.904-1.89T165.577 85t2.019-4.59q2.02-1.89 4.904-1.89t4.904 1.89q2.019 1.89 2.019 4.59t-2.019 4.59q-2.02 1.89-4.904 1.89m0 11.52q-8.59 0-15.673-4.32t-11.186-11.4a4.6 4.6 0 0 1-.481-1.11Q145 85.6 145 85t.16-1.17.481-1.11q4.103-7.08 11.186-11.4T172.5 67t15.673 4.32 11.186 11.4q.32.54.481 1.11T200 85q0 .6-.16 1.17t-.481 1.11q-4.103 7.08-11.186 11.4T172.5 103m0-4.8q7.244 0 13.301-3.57t9.263-9.63q-3.205-6.06-9.263-9.63T172.5 71.8q-7.244 0-13.301 3.57T149.936 85q3.205 6.06 9.263 9.63T172.5 98.2M248.333 78.362q0 3.711-1.195 7.04a21.9 21.9 0 0 1-3.355 6.099q-.64.825-.641 1.797 0 .972.7 1.68.758.706 1.75.618.991-.09 1.633-.913 2.684-3.36 4.229-7.542Q253 82.957 253 78.36q0-4.713-1.546-8.896-1.545-4.184-4.229-7.542-.642-.825-1.633-.913-.992-.09-1.75.619a2.3 2.3 0 0 0-.7 1.679q0 .972.641 1.797a21.8 21.8 0 0 1 3.355 6.127q1.195 3.36 1.195 7.13m-21 5.892q2.45 0 4.142-1.739 1.692-1.738 1.692-4.153 0-2.475-1.692-4.184-1.691-1.708-4.142-1.708-2.45 0-4.141 1.708-1.692 1.71-1.692 4.184 0 2.415 1.692 4.154t4.141 1.738m-11.666 15.319q0-1.002-.671-1.68t-1.663-.677-1.662.678q-.67.677-.671 1.679 0 3.888 2.742 6.658 2.741 2.769 6.591 2.769 3.617 0 5.921-1.827t3.529-5.361q.992-2.946 1.896-4.125t4.171-3.77q3.617-2.947 5.717-6.658t2.1-8.897q0-7.012-4.696-11.755t-11.638-4.743q-6.941 0-11.637 4.743T211 78.362q0 1.002.671 1.679.67.678 1.662.678t1.663-.678q.67-.677.671-1.68 0-5.007 3.354-8.395t8.312-3.388q4.959 0 8.313 3.388T239 78.362q0 4.006-1.575 6.834-1.575 2.829-4.492 5.067-3.033 2.24-4.725 4.36a14.7 14.7 0 0 0-2.508 4.596q-.817 2.593-1.954 3.83t-3.413 1.237q-1.925 0-3.295-1.384-1.371-1.385-1.371-3.33M107.263 89.034l.233 1.909q.059.477.378.775.32.298.785.298h2.56q.465 0 .785-.298t.378-.775l.232-1.91q.466-.178.844-.417t.669-.537l1.745.776q.407.18.814.06t.64-.537l1.279-2.267a1.18 1.18 0 0 0 .146-.835 1.27 1.27 0 0 0-.436-.716l-1.513-1.133q.117-.477.117-.954t-.117-.955l1.513-1.133q.349-.298.436-.716a1.18 1.18 0 0 0-.146-.835l-1.279-2.266q-.233-.418-.64-.537a1.16 1.16 0 0 0-.814.06l-1.745.775a3.7 3.7 0 0 0-.669-.537 5 5 0 0 0-.844-.417l-.232-1.909a1.23 1.23 0 0 0-.378-.775 1.1 1.1 0 0 0-.785-.299h-2.56q-.465 0-.785.299a1.23 1.23 0 0 0-.378.775l-.233 1.909q-.465.178-.843.417a3.7 3.7 0 0 0-.669.537l-1.745-.775a1.16 1.16 0 0 0-.814-.06q-.407.12-.64.537l-1.279 2.266a1.18 1.18 0 0 0-.146.835q.087.418.436.716l1.513 1.133a4 4 0 0 0-.117.955q0 .477.117.954l-1.513 1.133a1.27 1.27 0 0 0-.436.716q-.087.418.146.835l1.279 2.267q.233.417.64.537t.814-.06l1.745-.776q.291.3.669.537.378.24.843.418m2.676-2.982a3.33 3.33 0 0 1-2.472-1.044q-1.018-1.044-1.018-2.535t1.018-2.535a3.33 3.33 0 0 1 2.472-1.044q1.453 0 2.472 1.044 1.018 1.043 1.018 2.535 0 1.491-1.018 2.535a3.33 3.33 0 0 1-2.472 1.044m-13.96 12.406a22 22 0 0 1-5.147-7.247A21.4 21.4 0 0 1 89 82.473q0-8.947 6.107-15.21T109.94 61q7.27 0 12.883 4.384t7.3 11.422l3.024 12.228q.29 1.132-.407 2.058-.698.924-1.861.924h-4.653v7.158q0 1.968-1.367 3.37-1.367 1.401-3.286 1.402h-4.653v2.385q0 1.014-.669 1.7-.67.686-1.658.686-.989 0-1.658-.686t-.669-1.7v-4.771q0-1.014.669-1.7.67-.686 1.658-.686h6.98V89.63q0-1.014.669-1.7t1.657-.686h3.955L125.643 78q-1.338-5.427-5.7-8.827t-10.004-3.4q-6.747 0-11.516 4.831t-4.77 11.75q0 3.58 1.425 6.8t4.043 5.726l1.512 1.432v10.02q0 1.014-.67 1.7-.668.686-1.657.686t-1.657-.686q-.67-.686-.67-1.7z"/></svg>
